X:1
T:Oime patientia
T:Oime patientia
T:Rupert Unterholzer
T:Source : Trium vocum cantiones---Nürnberg---J.Petreius---1541. Editor : André Vierendeels (14/04/16).
T:Notes : Original clefs : C1, C3, F3 Original note values have been halved
T:©
T:©
T:©
T:©
T:©
T:©
C:Rupert Unterholzer
Z:©
%%score [ 1 [ 2 3 ] ]
L:1/8
Q:1/4=99
M:2/2
K:F
V:1 treble nm="Soprano" snm="S"
V:2 treble-8 nm="Tenor 1" snm="T 1"
V:3 treble-8 nm="Tenor 2" snm="T 2"
V:1
 z8 | z8 | z8 | z8 | z8 | z8 | z4 c4- | c8 | A4 G4- | G4 z4 | B8 | A4 G4 | G4 F4- | F4 c3 B | %14
w: ||||||Oi-||* me|_|pa-|ti- en-|ti- a,|_ oi- *|
 A2 G4 c2- | c2 A2 B3 A | G2 c4 A2 | B3 A G2 FG | AB c4 B2 | G2 B3 A A2- | A2 GF c2 c2 | %21
w: * me, oi-|* * me, _|_ pa- ti-|en- * * * *|||* * * * ti-|
 A3 G ABcA | BAGF E2 F2 | E2 F4 ED | E4 z2 G2- | G2 A2 B3 A | G2 F4 E2 | F3 E D2 D2 | C2 c4 B2- | %29
w: a, _ _ _ _ _|_ _ _ _ _ oi-||me, pa-|* ti- en- *|* ti- *|* * a, oi-|me, oi- *|
 BA F4 c2- | c2 A2 G2 c2- | c2 BG B3 A | F2 c2 B2 G2 | A2 c4 A2 | B3 A G2 F2- | F2 A4 G2 | %36
w: * * me, oi-|* * me, oi-|* * me, oi- *|me, oi- * *|me, oi- *|* * * me,|_ pa- ti-|
 A2 F2 E2 c2- | c2 B2 G4 | c3 B A2 G2 | B4 A4 | G2 G2 F4- | F4 z4 | c4 A2 F2- | F2 B4 A2 | %44
w: en- ti- a, oi-|* * me,|oi- * * me,|pa- ti-|en- ti- a,|_|oi- * me,|_ pa- ti-|
 G2 G2 F4 | c8 | A4 G4- | G4 z4 | B8 | A4 G2 B2- | BA G3 F F2- | F2 ED E2 E2 | F8- | F8- | F8 |] %55
w: en- ti- a,|oi-|* me,|_|pa-|ti- en- *||* * * * ti-|a.|_||
V:2
 z8 | z4 c4- | c4 A4 | G4 c4- | c4 A4 | G2 B4 A2 | G2 G2 F4 | z2 f4 e2 | c4 z2 c2 | B2 G2 c2 B2 | %10
w: |Oi-||me, oi-||me, pa- ti-|en- ti- a,|oi- *|me, pa-|ti- en- ti- *|
 G2 d3 e f2- | f2 ed e2 d2 | e2 d4 cB | dc f4 e2 | cdef g2 e2 | f4 d2 g2- | g2 e2 f3 e | d4 z2 d2 | %18
w: a, pa- ti- en-|||* * * ti-|a, _ _ _ _ _|oi- me pa-|* ti- en- ti-|a, pa-|
 f2 e4 dc | e2 d4 cB | d2 d2 c4 | f8 | d4 c4- | c4 z4 | g8 | e4 d4- | d4 z4 | f8 | e4 d4 | d4 c4 | %30
w: ti- en- * *||* ti- a,|oi-|* me,|_|oi-|* me,|_|pa-|ti- en-|ti- a,|
 f4 e2 c2- | c2 g3 f d2- | de f4 e2 | f2 c2 f3 e | d2 B2 c2 d2- | d2 cB A2 c2- | c2 B2 c2 A2 | %37
w: oi- * me,|_ pa- ti- en-||ti- a, oi- *||||
 G4 z2 g2- | g2 e4 d2- | d2 f4 e2- | e2 d2 d2 c2- | c2 f4 d2 | c2 f4 e2 | c2 g3 f f2- | f2 e2 f4- | %45
w: me, oi-|* * me,|_ pa- ti-|* en- ti- a,|_ oi- *|me, pa- ti-|en- * * *||
 f2 e2 c4 | z4 c4- | c4 A4 | G8 | z4 B4- | B4 A4 | G4 G4 | F4 B2 B2 | A6 GF | c8 |] %55
w: * ti- a,|oi-||me,|pa-|* ti-|en- ti|a, pa- ti-|en- ti- *|a.|
V:3
 F8 | D4 C4 | F8 | E4 C4 | z2 F4 D2 | E2 G3 F F2- | F2 E2 F4- | F4 z4 | F4 E2 C2 | z2 G2 F2 D2 | %10
w: Oi-|* me,|oi-|* me,|pa- ti-|en- * * *|* ti- a,|_|oi- * me,|pa- ti- en-|
 G3 A B2 B2 | FGAB c2 G2 | c2 B4 AG | F4 z4 | c8 | A4 G4 | z8 | B8 | A4 G4 | G4 F4 | z4 z2 F2- | %21
w: * * * ti-|a, _ _ _ _ _|_ oi- * *|me,|oi-|* me,||pa-|ti- en-|ti- a,|pa-|
 F2 D2 F4 | G4 A4- | A2 F2 A3 B | c4 z2 c2- | c4 G4 | B3 A G2 G2 | F4 B4 | c4 G3 G | B3 B F4- | %30
w: * ti- en-||* * * ti-|a, oi-|* me,|pa- ti- en- ti|a, oi-|men pa- ti-|en- ti- a,|
 F4 c4 | A2 G4 B2- | B2 A2 G2 G2 | F4 z4 | G4 E2 D2- | D2 F4 E2 | D2 D2 C4- | C2 G4 E2 | C2 c4 B2 | %39
w: _ oi-|* me, pa-|* ti- en- ti-|a,|oi- * me,|_ pa- ti-|en- ti- a,|_ oi- *|me, oi- *|
 G2 d4 c2- | c2 B2 B2 F2- | F4 B4 | A2 F4 c2- | cB G4 A2 | B2 c2 F2 B2 | AF c3 B A2- | %46
w: me, pa- ti-|* en- ti- a,|_ oi-|* me, pa-|* * * ti-|en- ti- a, oi-||
 AG F2 E2 C2- | CDEC F2 D2 | G2 E3 FGE | F4 _E4- | E4 F4 | C4 C4 | D6 CB, | F8- | F8 |] %55
w: * * * * me,|_ _ _ _ _ pa-|ti- en- * * *|* ti-|* a,|pa- ti-|en- ti _|a.|_|

